src/images/tech/react.svg

<svg viewBox="0 0 113 101" fill="none" xmlns="http://www.w3.org/2000/svg">
<g clip-path="url(#clip0_14_43)">
<path d="M92.9055 32.7027C91.703 32.2887 90.4903 31.9051 89.2686 31.5523C89.4738 30.7106 89.6627 29.8792 89.8304 29.0623C92.5837 15.6484 90.7838 4.8418 84.6359 1.28376C78.7415 -2.1272 69.1015 1.4295 59.3658 9.93344C58.4063 10.773 57.4681 11.6368 56.552 12.524C55.9388 11.9341 55.3148 11.3556 54.6802 10.7888C44.4766 1.69618 34.2492 -2.13606 28.108 1.43216C22.2188 4.85376 20.4749 15.0127 22.9537 27.7254C23.2003 28.9844 23.4787 30.237 23.7887 31.4819C22.341 31.8947 20.9441 32.3342 19.6072 32.802C7.64431 36.9881 0.00463867 43.5483 0.00463867 50.3529C0.00463867 57.3808 8.20617 64.43 20.666 68.7044C21.6762 69.0495 22.6947 69.3692 23.7208 69.6634C23.3875 71.0042 23.0917 72.354 22.8336 73.7114C20.4705 86.2035 22.3159 96.1223 28.1892 99.5222C34.2554 103.033 44.4369 99.4248 54.3505 90.7268C55.1544 90.0197 55.9406 89.2925 56.7083 88.546C57.7003 89.5066 58.7188 90.4393 59.7626 91.343C69.3659 99.6365 78.85 102.985 84.7176 99.5762C90.7781 96.055 92.7479 85.3995 90.1906 72.4356C89.9891 71.42 89.7632 70.4094 89.5131 69.4047C90.2281 69.1921 90.9299 68.9733 91.614 68.7456C104.567 64.4384 112.995 57.4748 112.995 50.3529C112.995 43.5235 105.109 36.919 92.9055 32.7027ZM90.0961 64.1474C89.4782 64.3525 88.8444 64.5505 88.1982 64.7432C86.7682 60.1995 84.8385 55.3684 82.4768 50.3764C84.7304 45.5036 86.5859 40.734 87.9758 36.22C89.1317 36.5558 90.2533 36.9097 91.3346 37.2832C101.791 40.8961 108.168 46.2372 108.168 50.3529C108.168 54.7367 101.28 60.4277 90.0961 64.1474ZM85.4556 73.3765C86.5864 79.1087 86.7475 84.2916 85.9985 88.3435C85.3258 91.9844 83.9726 94.4115 82.2989 95.3839C78.7384 97.4526 71.1234 94.7637 62.9109 87.6707C61.94 86.8305 60.9926 85.9634 60.0698 85.0703C63.2538 81.5757 66.4356 77.5131 69.5411 73.0009C75.0035 72.5145 80.164 71.7189 84.8438 70.6331C85.0693 71.5426 85.2732 72.4573 85.4556 73.3765ZM38.5256 95.0264C35.0467 96.2592 32.2758 96.2946 30.6008 95.3254C27.0368 93.2624 25.5551 85.298 27.5761 74.6151C27.8164 73.3527 28.0914 72.0972 28.401 70.8502C33.0292 71.8779 38.1522 72.6168 43.6274 73.0624C46.7541 77.4776 50.0277 81.5358 53.327 85.0894C52.6258 85.7703 51.9081 86.4338 51.1744 87.0793C46.7903 90.9252 42.3973 93.654 38.5256 95.0264ZM22.2276 64.1204C16.718 62.2302 12.1679 59.7738 9.04919 57.0933C6.24649 54.6849 4.8319 52.2932 4.8319 50.3529C4.8319 46.2234 10.9656 40.9564 21.1961 37.3766C22.4377 36.9425 23.7371 36.5328 25.0855 36.1483C26.4996 40.7641 28.3543 45.5904 30.5924 50.4708C28.3251 55.4233 26.444 60.3267 25.0162 64.997C24.0796 64.7278 23.1498 64.4355 22.2276 64.1204ZM27.6909 26.7947C25.5674 15.9031 26.9776 7.68707 30.5267 5.62499C34.3066 3.42868 42.6652 6.56013 51.4754 14.4115C52.0499 14.9247 52.6151 15.4482 53.1707 15.9819C49.8878 19.52 46.6442 23.5481 43.5453 27.9371C38.2312 28.4315 33.1444 29.2253 28.4677 30.2889C28.1795 29.1311 27.9205 27.9661 27.6909 26.7951V26.7947ZM76.43 38.8739C75.3254 36.9589 74.1797 35.0679 72.9939 33.2024C76.599 33.66 80.0532 34.2673 83.2968 35.0098C82.3232 38.1426 81.1094 41.4175 79.6807 44.7753C78.6364 42.7867 77.5526 40.8191 76.43 38.8739ZM56.5542 19.4443C58.7805 21.8652 61.0103 24.5678 63.2035 27.5003C58.7545 27.2895 54.298 27.2886 49.849 27.4977C52.0443 24.5922 54.2931 21.8931 56.5542 19.4443ZM36.5509 38.9071C35.4424 40.8367 34.3788 42.792 33.3612 44.7713C31.9558 41.4255 30.7531 38.1355 29.7711 34.9584C32.9948 34.2346 36.4326 33.6427 40.0148 33.1936C38.8158 35.0705 37.6608 36.9754 36.5509 38.9067V38.9071ZM40.1176 67.8569C36.4168 67.4423 32.9273 66.8811 29.7044 66.1767C30.7019 62.9429 31.9311 59.5829 33.3669 56.1653C34.3886 58.1461 35.4566 60.1026 36.5699 62.0331C37.7148 64.0176 38.9003 65.9614 40.1176 67.8569ZM56.6875 81.6027C54.3995 79.1255 52.1176 76.3848 49.8891 73.4372C52.0527 73.5222 54.2582 73.5657 56.5 73.5657C58.803 73.5657 61.0796 73.5138 63.3204 73.4137C61.1202 76.4145 58.8988 79.1592 56.6875 81.6027ZM79.7262 55.9908C81.2365 59.446 82.5094 62.7883 83.5202 65.9667C80.2443 66.7171 76.7072 67.3214 72.9803 67.7701C74.1745 65.87 75.331 63.9462 76.449 61.9998C77.5857 60.0215 78.6783 58.0179 79.7262 55.9908ZM72.2679 59.5794C70.5563 62.5635 68.7486 65.4909 66.8474 68.3571C63.4037 68.6019 59.9523 68.7235 56.5 68.7216C52.9836 68.7216 49.5634 68.6118 46.2699 68.3974C44.3191 65.5378 42.4769 62.6053 40.747 59.6059H40.7475C39.0258 56.6225 37.4176 53.5745 35.9264 50.4685C37.4138 47.3619 39.0171 44.3124 40.7329 41.3267L40.7325 41.3272C42.4476 38.3407 44.2752 35.4206 46.2112 32.5734C49.5713 32.3182 53.0171 32.1853 56.4995 32.1853H56.5C59.9983 32.1853 63.4484 32.3196 66.8077 32.5765C68.7242 35.4195 70.5401 38.3295 72.252 41.301C73.9735 44.2802 75.598 47.3147 77.123 50.3999C75.6137 53.5166 73.9943 56.5784 72.2679 59.5794ZM82.2252 5.48058C86.0086 7.67068 87.4801 16.5024 85.1029 28.0842C84.9511 28.8231 84.7807 29.5757 84.5953 30.339C79.9071 29.2528 74.8168 28.4452 69.4873 27.9433C66.3827 23.506 63.1655 19.4717 59.936 15.9793C60.7824 15.1604 61.6489 14.3628 62.5348 13.5872C70.8767 6.30142 78.673 3.4247 82.2252 5.48058ZM56.5 40.2263C62.0723 40.2263 66.5897 44.7603 66.5897 50.3529C66.5897 55.9456 62.0723 60.4795 56.5 60.4795C50.9277 60.4795 46.4102 55.9456 46.4102 50.3529C46.4102 44.7603 50.9277 40.2263 56.5 40.2263Z" fill="#00D8FF"/>
</g>
<defs>
<clipPath id="clip0_14_43">
<rect width="113" height="101" fill="white"/>
</clipPath>
</defs>
</svg>

<svg viewBox="0 0 113 101" fill="none" xmlns="http://www.w3.org/2000/svg"><g clip-path="url(#a)"><path d="M92.906 32.703a75.63 75.63 0 0 0-3.637-1.15c.205-.842.394-1.674.561-2.49 2.754-13.415.954-24.221-5.194-27.78-5.894-3.41-15.534.147-25.27 8.65-.96.84-1.898 1.704-2.814 2.591a68.967 68.967 0 0 0-1.872-1.735C44.477 1.696 34.25-2.136 28.108 1.432c-5.89 3.422-7.633 13.58-5.154 26.293.246 1.26.525 2.512.835 3.757a74.694 74.694 0 0 0-4.182 1.32C7.644 36.988.005 43.548.005 50.352c0 7.029 8.201 14.078 20.661 18.352 1.01.346 2.029.665 3.055.96-.334 1.34-.63 2.69-.887 4.047-2.363 12.493-.518 22.411 5.355 25.811 6.066 3.511 16.248-.097 26.161-8.795a64.273 64.273 0 0 0 2.358-2.181c.992.96 2.01 1.893 3.055 2.797 9.603 8.293 19.087 11.642 24.955 8.233 6.06-3.521 8.03-14.176 5.473-27.14a64.56 64.56 0 0 0-.678-3.031 68.311 68.311 0 0 0 2.101-.66c12.953-4.307 21.381-11.27 21.381-18.392 0-6.83-7.886-13.434-20.09-17.65zm-2.81 31.444c-.618.206-1.252.403-1.898.596-1.43-4.543-3.36-9.375-5.721-14.367 2.253-4.872 4.109-9.642 5.499-14.156 1.156.336 2.277.69 3.359 1.063 10.456 3.613 16.833 8.954 16.833 13.07 0 4.384-6.888 10.075-18.072 13.794zm-4.64 9.23c1.13 5.732 1.291 10.915.543 14.967-.673 3.64-2.026 6.068-3.7 7.04-3.56 2.069-11.176-.62-19.388-7.713a69.171 69.171 0 0 1-2.841-2.6c3.184-3.495 6.366-7.558 9.471-12.07 5.463-.487 10.623-1.282 15.303-2.368.225.91.43 1.824.612 2.743zm-46.93 21.65c-3.48 1.232-6.25 1.268-7.925.298-3.564-2.063-5.046-10.027-3.025-20.71.24-1.262.515-2.518.825-3.765 4.628 1.028 9.751 1.767 15.226 2.212 3.127 4.416 6.4 8.474 9.7 12.027a59.616 59.616 0 0 1-2.153 1.99c-4.384 3.846-8.777 6.575-12.648 7.947zM22.228 64.12c-5.51-1.89-10.06-4.346-13.179-7.027-2.803-2.408-4.217-4.8-4.217-6.74 0-4.13 6.134-9.397 16.364-12.976a69.786 69.786 0 0 1 3.89-1.229c1.414 4.616 3.268 9.442 5.506 14.323-2.267 4.952-4.148 9.856-5.576 14.526a59.217 59.217 0 0 1-2.788-.877zm5.463-37.325c-2.124-10.892-.713-19.108 2.836-21.17 3.78-2.196 12.138.935 20.948 8.787.575.513 1.14 1.036 1.696 1.57-3.283 3.538-6.527 7.566-9.626 11.955-5.314.494-10.4 1.288-15.077 2.352a71.098 71.098 0 0 1-.777-3.494zM76.43 38.874a154.15 154.15 0 0 0-3.436-5.672c3.605.458 7.06 1.065 10.303 1.808-.974 3.133-2.188 6.407-3.616 9.765a169.037 169.037 0 0 0-3.251-5.901zm-19.876-19.43c2.227 2.421 4.456 5.124 6.65 8.056-4.45-.21-8.906-.211-13.355-.002a106.8 106.8 0 0 1 6.705-8.054zM36.551 38.907a143.402 143.402 0 0 0-3.19 5.864 107.16 107.16 0 0 1-3.59-9.813 108.629 108.629 0 0 1 10.244-1.764 142.55 142.55 0 0 0-3.464 5.713zm3.567 28.95c-3.701-.415-7.19-.976-10.414-1.68a108.714 108.714 0 0 1 3.663-10.012 142.57 142.57 0 0 0 6.75 11.692zm16.57 13.746a108.547 108.547 0 0 1-6.799-8.166c2.164.085 4.37.129 6.611.129 2.303 0 4.58-.052 6.82-.152-2.2 3-4.421 5.745-6.633 8.189zM79.725 55.99c1.51 3.455 2.783 6.797 3.794 9.976-3.276.75-6.813 1.354-10.54 1.803 1.194-1.9 2.351-3.824 3.469-5.77a154.137 154.137 0 0 0 3.277-6.01zm-7.458 3.588a158.94 158.94 0 0 1-5.42 8.778c-3.444.245-6.896.367-10.348.365-3.516 0-6.937-.11-10.23-.325a137.495 137.495 0 0 1-5.523-8.791 136.325 136.325 0 0 1-4.82-9.138 137.645 137.645 0 0 1 4.806-9.141 136.17 136.17 0 0 1 5.478-8.754 136.13 136.13 0 0 1 10.288-.388h.001c3.498 0 6.948.135 10.308.392a145.955 145.955 0 0 1 5.444 8.724 159.07 159.07 0 0 1 4.871 9.099 146.162 146.162 0 0 1-4.855 9.18zm9.957-54.098c3.784 2.19 5.255 11.021 2.878 22.603a64.934 64.934 0 0 1-.508 2.255c-4.688-1.086-9.778-1.894-15.108-2.396-3.104-4.437-6.321-8.471-9.551-11.964a70.966 70.966 0 0 1 2.599-2.392c8.342-7.286 16.138-10.162 19.69-8.106zM56.5 40.226c5.572 0 10.09 4.534 10.09 10.127 0 5.593-4.518 10.127-10.09 10.127s-10.09-4.534-10.09-10.127c0-5.593 4.518-10.127 10.09-10.127z" fill="#00D8FF"/></g><defs><clipPath id="a"><path fill="#fff" d="M0 0h113v101H0z"/></clipPath></defs></svg>
